build/communication/WechatRoundSolid.svg

<svg xmlns="http://www.w3.org/2000/svg" fill="none" viewBox="0 0 24 24" focusable="false"><path d="M0 0H24V24H0z"/><path fill="#74767B" fill-rule="evenodd" d="M12 3C7.02954 3 3 7.02945 3 12C3 16.9706 7.02954 21 12 21C16.9705 21 21 16.9706 21 12C21 7.02945 16.9705 3 12 3ZM10.3462 7.20001C8.05151 7.20001 6.19995 8.7442 6.19995 10.6815C6.19995 11.7284 6.74756 12.6706 7.63403 13.2988C7.7124 13.3507 7.72729 13.4666 7.72729 13.5115C7.72925 13.5462 7.72412 13.5798 7.7124 13.6124C7.63403 13.8741 7.53418 14.2977 7.52979 14.3201C7.52563 14.3426 7.50366 14.3987 7.50366 14.4248C7.51636 14.4373 7.56641 14.5415 7.58276 14.5479C7.61133 14.5461 7.68872 14.5452 7.7124 14.5295L8.62573 14.0057C8.7041 13.9533 8.75635 13.9533 8.83447 13.9533C8.87939 13.954 8.9231 13.9627 8.96484 13.9794C9.38184 14.1104 9.85132 14.1627 10.3208 14.1627L10.5554 14.1627C10.4695 13.8812 10.426 13.5934 10.425 13.299C10.425 11.5453 12.1204 10.132 14.2063 10.132L14.4412 10.132C14.1533 8.48251 12.4324 7.20001 10.3462 7.20001ZM8.96411 10.1314C8.92822 10.1315 8.89233 10.1281 8.85693 10.1212C8.82153 10.1143 8.78711 10.104 8.75366 10.0903C8.72363 10.0703 8.60059 9.99716 8.57495 9.97171C8.55469 9.94174 8.46899 9.82703 8.45508 9.7937C8.44116 9.76041 8.43066 9.72604 8.42334 9.69067C8.41626 9.65527 8.4126 9.61954 8.4126 9.58344C8.4126 9.5473 8.41602 9.51157 8.42285 9.4761C8.42993 9.44067 8.44019 9.40628 8.45386 9.37286C8.47388 9.3428 8.54712 9.21976 8.57251 9.19415C8.60254 9.17401 8.71729 9.08841 8.75073 9.07452C8.78394 9.06064 8.81812 9.05011 8.85352 9.04297C8.88892 9.03583 8.9248 9.03223 8.96094 9.03217C8.99707 9.03207 9.03271 9.03552 9.06836 9.04248C9.10376 9.04944 9.13818 9.05981 9.17139 9.07352C9.20142 9.09354 9.32446 9.16687 9.3501 9.19238C9.37012 9.22232 9.45581 9.33719 9.46948 9.37051C9.4834 9.40387 9.4939 9.43823 9.50098 9.4736C9.50806 9.50903 9.51172 9.54477 9.51196 9.58087C9.51172 9.61682 9.50806 9.65244 9.50098 9.68768C9.49365 9.72296 9.4834 9.75717 9.46948 9.79041C9.44971 9.82031 9.37622 9.94266 9.35083 9.96814C9.32104 9.98822 9.20679 10.0736 9.17358 10.0875C9.14038 10.1014 9.1062 10.112 9.07104 10.1192C9.03589 10.1264 9.00024 10.1311 8.96411 10.1314ZM11.7283 10.1314C11.6921 10.1314 11.6565 10.1279 11.6211 10.1208C11.5857 10.1138 11.5513 10.1034 11.5178 10.0896C11.488 10.0695 11.3652 9.99594 11.3396 9.9704C11.3196 9.9404 11.2344 9.82544 11.2205 9.79211C11.2068 9.75876 11.1963 9.7244 11.1892 9.689C11.1821 9.65359 11.1787 9.61786 11.1787 9.58176C11.1787 9.54568 11.1821 9.50995 11.1892 9.47455C11.1963 9.43915 11.2068 9.40479 11.2205 9.37143C11.2405 9.34143 11.314 9.21866 11.3396 9.19312C11.3696 9.1731 11.4846 9.0878 11.5178 9.07397C11.5513 9.06018 11.5857 9.04974 11.6211 9.04269C11.6565 9.03568 11.6921 9.03217 11.7283 9.03217C12.0151 9.03217 12.2759 9.29382 12.2759 9.58176C12.3018 9.86972 12.0413 10.1314 11.7283 10.1314ZM16.5002 15.4969C17.2305 14.9733 17.7 14.1883 17.7 13.2984C17.7 11.7018 16.1614 10.3931 14.2317 10.3931C12.3022 10.3931 10.7632 11.7018 10.7632 13.2984C10.7632 14.8949 12.3018 16.2035 14.2317 16.2035C14.6228 16.2035 15.0139 16.1512 15.353 16.0462C15.4089 16.0269 15.4312 16.02 15.4573 16.02C15.5227 16.0215 15.5837 16.0391 15.6399 16.0725L16.3972 16.5175C16.4253 16.5156 16.5273 16.5309 16.5474 16.511C16.5457 16.4813 16.5723 16.3805 16.5625 16.3524C16.5535 16.3196 16.4502 15.993 16.3972 15.7848C16.3975 15.7427 16.4805 15.534 16.5002 15.4969ZM13.0842 12.8271C13.0537 12.8213 12.9321 12.8038 12.9036 12.7921C12.8774 12.7749 12.7717 12.7122 12.7498 12.6903C12.7324 12.6646 12.6589 12.5661 12.647 12.5375C12.6406 12.5071 12.6104 12.388 12.6104 12.357C12.6162 12.3265 12.634 12.2049 12.6458 12.1762C12.6628 12.1504 12.7258 12.0447 12.7476 12.0227C12.7734 12.0055 12.8718 11.932 12.9006 11.9201C12.9312 11.914 13.0503 11.8839 13.0813 11.8838C13.1116 11.8898 13.2334 11.9077 13.262 11.9195C13.2878 11.9367 13.3933 11.9998 13.4153 12.0217C13.4324 12.0475 13.5059 12.1461 13.5176 12.1748C13.5237 12.2052 13.5537 12.3245 13.5537 12.3555C13.5479 12.3859 13.5308 12.5074 13.519 12.536C13.5017 12.5618 13.4392 12.6673 13.4175 12.6893C13.3916 12.7065 13.2932 12.7798 13.2646 12.7916C13.2361 12.8034 13.1145 12.8212 13.0842 12.8271ZM15.3789 12.8271C15.3486 12.8213 15.2268 12.8038 15.1982 12.7921C15.1724 12.7749 15.0667 12.7122 15.0447 12.6903C15.0273 12.6646 14.9536 12.5661 14.9417 12.5375C14.9355 12.5071 14.9053 12.388 14.905 12.357C14.9111 12.3265 14.9287 12.2049 14.9404 12.1762C14.9578 12.1504 15.0205 12.0447 15.0425 12.0227C15.0684 12.0055 15.1667 11.932 15.1953 11.9201C15.2258 11.914 15.345 11.8839 15.376 11.8838C15.4065 11.8898 15.5281 11.9077 15.5569 11.9195C15.5825 11.9367 15.6882 11.9998 15.7102 12.0217C15.7275 12.0475 15.8005 12.1461 15.8125 12.1748C15.8186 12.2052 15.8484 12.3245 15.8484 12.3555C15.8425 12.3859 15.8254 12.5074 15.8137 12.536C15.7966 12.5618 15.7339 12.6673 15.7122 12.6892C15.6865 12.7064 15.5879 12.7797 15.5596 12.7915C15.5308 12.8033 15.4092 12.8212 15.3789 12.8271Z"/></svg>

<svg xmlns="http://www.w3.org/2000/svg" fill="none" viewBox="0 0 24 24" focusable="false"><path fill="none" d="M0 0h24v24H0z"/><path fill="#74767B" fill-rule="evenodd" d="M12 3c-4.98 0-9 4.02-9 9 0 4.97 4.02 9 9 9a9 9 0 0 0 9-9c0-4.98-4.03-9-9-9m-1.66 4.2c-2.29 0-4.15 1.54-4.15 3.48 0 1.04.55 1.99 1.44 2.61.08.06.09.17.09.22 0 .03 0 .06-.01.1-.08.26-.18.68-.19.71 0 .02-.02.07-.02.1.01.01.06.12.08.12.03 0 .1 0 .13-.02l.91-.52c.08-.05.13-.05.21-.05.04 0 .09.01.13.02.42.14.89.19 1.36.19h.23c-.09-.28-.13-.57-.13-.87 0-1.75 1.7-3.16 3.78-3.16h.24c-.29-1.65-2.01-2.93-4.1-2.93m-1.38 2.93c-.04 0-.07-.01-.11-.01l-.1-.03-.18-.12c-.02-.03-.11-.15-.12-.18l-.03-.1c-.01-.04-.01-.08-.01-.11 0-.04 0-.07.01-.11 0-.03.02-.07.03-.1.02-.03.09-.16.12-.18s.14-.11.18-.12c.03-.01.06-.02.1-.03.03-.01.07-.01.11-.01.03 0 .07 0 .1.01.04 0 .07.01.11.03.03.02.15.09.18.12.02.03.1.14.11.18a.3.3 0 0 1 .04.1c0 .03.01.07.01.11 0 .03-.01.07-.01.1-.01.04-.02.07-.04.11-.02.03-.09.15-.11.17-.03.02-.15.11-.18.12-.03.02-.07.03-.1.03-.04.01-.07.02-.11.02m2.76 0c-.03 0-.07-.01-.1-.01a.5.5 0 0 1-.11-.04c-.03-.02-.15-.09-.18-.11-.02-.03-.1-.15-.11-.18a.5.5 0 0 1-.04-.11c0-.03-.01-.07-.01-.1 0-.04.01-.08.01-.11a.3.3 0 0 1 .04-.1c.02-.03.09-.16.11-.18.03-.02.15-.11.18-.12.04-.01.07-.03.11-.03.03-.01.07-.01.1-.01.29 0 .55.26.55.55.03.28-.23.55-.55.55m4.78 5.36c.73-.52 1.2-1.31 1.2-2.2 0-1.59-1.54-2.9-3.47-2.9s-3.47 1.31-3.47 2.9c0 1.6 1.54 2.91 3.47 2.91.39 0 .78-.05 1.12-.16.05-.02.08-.02.1-.02.07 0 .13.01.18.05l.76.44c.03 0 .13.02.15 0 0-.03.03-.13.02-.16-.01-.04-.11-.36-.17-.57 0-.04.09-.25.11-.29m-3.42-2.67c-.03 0-.15-.02-.18-.03-.03-.02-.13-.08-.16-.1-.01-.03-.09-.13-.1-.16 0-.03-.03-.15-.03-.18s.02-.15.03-.18c.02-.02.08-.13.1-.15.03-.02.13-.09.16-.1s.15-.04.18-.04.15.02.18.03c.02.02.13.08.15.11.02.02.09.12.1.15s.04.15.04.18c-.01.03-.02.15-.04.18-.01.03-.08.13-.1.15s-.12.09-.15.11c-.03.01-.15.03-.18.03m2.29 0c-.03 0-.15-.02-.18-.03-.02-.02-.13-.08-.15-.1-.02-.03-.09-.13-.1-.16s-.04-.15-.04-.18c.01-.03.02-.15.04-.18.01-.02.08-.13.1-.15s.12-.09.15-.1.15-.04.18-.04.15.02.18.03c.03.02.13.08.16.11.01.02.09.12.1.15 0 .03.03.15.03.18s-.02.15-.03.18c-.02.03-.08.13-.1.15l-.16.11c-.02.01-.15.03-.18.03"/></svg>
